src/images/hop.svg

<svg fill="none" height="34" viewBox="0 0 27 34" width="27" xmlns="http://www.w3.org/2000/svg"><path d="m14.9452 24.2906-1.41 1.6216-1.4099-1.6216c-.2115-.2495-.4582-.5406-.7049-.8732-.5993 1.1226-1.2337 2.079-1.79768 2.8274.07049.1663.14099.3742.17624.5405.07049.1664.10574.2911.17624.4574.0352.1248.1057.2495.141.3327 0 0 .1057.291.1762.4158v.1247s.1763.2495.2468.3742c.1762.3327.3524.6653.5287.9979.1057.1664.1762.3327.282.4574.1762.2911.3172.5405.4934.79.0705.0832.1058.1663.1763.2495.5992.8732 1.1279 1.5384 1.5509 2.0374.3525-.4158.8459-.9979 1.3394-1.7048.0705-.0831.141-.1663.1763-.291.3877-.5821.7754-1.2058 1.1631-1.9127.0705-.1247.1058-.2079.1763-.3326.1762-.3742.3877-.7485.564-1.1643.0705-.1247.1057-.2494.1762-.4158.0705-.1663.1057-.291.1762-.4573.0705-.1664.1058-.3327.1763-.499-.564-.79-1.1985-1.7463-1.7977-2.869-.282.3327-.5287.6237-.7402.8732zm3.2075-4.7401c-.1409.291-.2819.5405-.4229.79-.0705.1247-.141.2495-.2115.3742-.141.2495-.3173.5405-.4582.7484.3524.7485.7402 1.4138 1.1279 1.9959.705 1.081 1.3747 1.9126 1.8329 2.4948 1.0927-1.289 3.2781-4.1164 4.2298-7.7754-1.4805-.2079-3.2076-.6653-4.8643-1.5385-.3525 1.0395-.7754 1.9958-1.2337 2.9106zm-8.0718 1.9542-.0705-.1247c-.1762-.2495-.31719-.5405-.49343-.8316-.03525-.0832-.10574-.1663-.14099-.2495-.0705-.1663-.17624-.291-.24674-.4574-.07049-.1247-.10574-.2494-.17624-.3326-.45822-.8732-.8812-1.8295-1.19843-2.869-1.65666.8732-3.38381 1.3306-4.86423 1.5385.98694 3.659 3.13708 6.4864 4.22976 7.7754.49348-.5406 1.16319-1.4138 1.86815-2.4948v.1663s0-.1247 0-.1663c.38773-.5821.77546-1.2474 1.12795-1.9543zm13.5705-17.46345c-2.2911-2.82742-5.6749-4.15797-10.1162-4.03323106-4.40596-.12473894-7.82502 1.20581106-10.11614 3.99165106-3.137075 3.86691-3.41906 9.60493-3.41906 11.97493.599217 0 1.44517 0 2.39687-.1663v.2911c0-.0832 0-.2079 0-.2911 1.40992-.2079 3.06658-.6237 4.68799-1.4969v-.0831c0-1.0811.07049-2.1622.28198-3.2432.35248-1.66323.98695-3.24326 1.97389-4.65697.17624-.29105.38773-.58211.59922-.87317-.17624.37422-.28199.74843-.42298 1.12265-.49347 1.53845-.74021 3.0769-.74021 4.65689 0 .6237.0705 1.2474.141 1.8295.14099.8732.31723 1.7048.56396 2.4532.0705.2495.17624.5406.28199.7901.38769.9979.81069 1.9126 1.26889 2.7026.4583.8316.9517 1.5801 1.3747 2.1622s.7755 1.0395 1.0927 1.3721c.3172-.3326.6697-.79 1.0927-1.3721.4582-.6237.9164-1.3306 1.3747-2.1622.4582-.8315.9164-1.7463 1.2689-2.7442.1057-.2495.2115-.5406.282-.8316.2467-.7484.423-1.58.5639-2.4116.1058-.6237.141-1.2474.141-1.8711 0-1.53847-.2114-3.1185-.7402-4.61537-.1057-.37421-.2467-.74843-.4229-1.12265.2114.24948.4229.54054.5992.83159.9517 1.45529 1.6214 2.99374 1.9739 4.69853.2467 1.1226.3172 2.2453.2819 3.3264 1.6215.8731 3.2781 1.2889 4.688 1.4968.987.1248 1.7977.1663 2.3969.1663 0-2.37-.282-8.108-3.4191-11.97491z" fill="#fff"/></svg>

<svg width="27" height="34" viewBox="0 0 27 34" fill="none" xmlns="http://www.w3.org/2000/svg">
<path d="M14.9452 24.2906L13.5352 25.9122L12.1253 24.2906C11.9138 24.0411 11.6671 23.75 11.4204 23.4174C10.8211 24.54 10.1867 25.4964 9.62272 26.2448C9.69321 26.4111 9.76371 26.619 9.79896 26.7853C9.86945 26.9517 9.9047 27.0764 9.9752 27.2427C10.0104 27.3675 10.0809 27.4922 10.1162 27.5754C10.1162 27.5754 10.2219 27.8664 10.2924 27.9912V28.1159C10.2924 28.1159 10.4687 28.3654 10.5392 28.4901C10.7154 28.8228 10.8916 29.1554 11.0679 29.488C11.1736 29.6544 11.2441 29.8207 11.3499 29.9454C11.5261 30.2365 11.6671 30.4859 11.8433 30.7354C11.9138 30.8186 11.9491 30.9017 12.0196 30.9849C12.6188 31.8581 13.1475 32.5233 13.5705 33.0223C13.923 32.6065 14.4164 32.0244 14.9099 31.3175C14.9804 31.2344 15.0509 31.1512 15.0862 31.0265C15.4739 30.4444 15.8616 29.8207 16.2493 29.1138C16.3198 28.9891 16.3551 28.9059 16.4256 28.7812C16.6018 28.407 16.8133 28.0327 16.9896 27.6169C17.0601 27.4922 17.0953 27.3675 17.1658 27.2011C17.2363 27.0348 17.2715 26.9101 17.342 26.7438C17.4125 26.5774 17.4478 26.4111 17.5183 26.2448C16.9543 25.4548 16.3198 24.4985 15.7206 23.3758C15.4386 23.7085 15.1919 23.9995 14.9804 24.249L14.9452 24.2906ZM18.1527 19.5505C18.0118 19.8415 17.8708 20.091 17.7298 20.3405C17.6593 20.4652 17.5888 20.59 17.5183 20.7147C17.3773 20.9642 17.201 21.2552 17.0601 21.4631C17.4125 22.2116 17.8003 22.8769 18.188 23.459C18.893 24.54 19.5627 25.3716 20.0209 25.9538C21.1136 24.6648 23.299 21.8374 24.2507 18.1784C22.7702 17.9705 21.0431 17.5131 19.3864 16.6399C19.0339 17.6794 18.611 18.6357 18.1527 19.5505ZM10.0809 21.5047L10.0104 21.38C9.8342 21.1305 9.69321 20.8395 9.51697 20.5484C9.48172 20.4652 9.41123 20.3821 9.37598 20.2989C9.30548 20.1326 9.19974 20.0079 9.12924 19.8415C9.05875 19.7168 9.0235 19.5921 8.953 19.5089C8.49478 18.6357 8.0718 17.6794 7.75457 16.6399C6.09791 17.5131 4.37076 17.9705 2.89034 18.1784C3.87728 21.8374 6.02742 24.6648 7.1201 25.9538C7.61358 25.4132 8.28329 24.54 8.98825 23.459V23.6253C8.98825 23.6253 8.98825 23.5006 8.98825 23.459C9.37598 22.8769 9.76371 22.2116 10.1162 21.5047H10.0809ZM23.6514 4.04125C21.3603 1.21383 17.9765 -0.11672 13.5352 0.00801894C9.12924 -0.11672 5.71018 1.21383 3.41906 3.99967C0.281985 7.86658 0 13.6046 0 15.9746C0.599217 15.9746 1.44517 15.9746 2.39687 15.8083C2.39687 15.8915 2.39687 16.0162 2.39687 16.0994C2.39687 16.0162 2.39687 15.8915 2.39687 15.8083C3.80679 15.6004 5.46345 15.1846 7.08486 14.3114V14.2283C7.08486 13.1472 7.15535 12.0661 7.36684 10.9851C7.71932 9.32187 8.35379 7.74184 9.34073 6.32813C9.51697 6.03708 9.72846 5.74602 9.93995 5.45496C9.76371 5.82918 9.65796 6.20339 9.51697 6.57761C9.0235 8.11606 8.77676 9.65451 8.77676 11.2345C8.77676 11.8582 8.84726 12.4819 8.91776 13.064C9.05875 13.9372 9.23499 14.7688 9.48172 15.5172C9.55222 15.7667 9.65796 16.0578 9.76371 16.3073C10.1514 17.3052 10.5744 18.2199 11.0326 19.0099C11.4909 19.8415 11.9843 20.59 12.4073 21.1721C12.8303 21.7542 13.1828 22.2116 13.5 22.5442C13.8172 22.2116 14.1697 21.7542 14.5927 21.1721C15.0509 20.5484 15.5091 19.8415 15.9674 19.0099C16.4256 18.1784 16.8838 17.2636 17.2363 16.2657C17.342 16.0162 17.4478 15.7251 17.5183 15.4341C17.765 14.6857 17.9413 13.8541 18.0822 13.0225C18.188 12.3988 18.2232 11.7751 18.2232 11.1514C18.2232 9.61293 18.0118 8.0329 17.483 6.53603C17.3773 6.16182 17.2363 5.7876 17.0601 5.41338C17.2715 5.66286 17.483 5.95392 17.6593 6.24497C18.611 7.70026 19.2807 9.23871 19.6332 10.9435C19.8799 12.0661 19.9504 13.1888 19.9151 14.2699C21.5366 15.143 23.1932 15.5588 24.6031 15.7667C25.5901 15.8915 26.4008 15.933 27 15.933C27 13.563 26.718 7.825 23.5809 3.95809L23.6514 4.04125Z" fill="white"/>
</svg>
